X:1250
T:(untitled)
C:John Malchair's Third Collection of Tunes
F:https://www.vwml.org/record/Malchair/3619/p125
F:www.vwml.org/topics/historic-dance-and-tune-books/Malchair
Z:Eric Conrad Feb 2020
N:NB1 No time signature is indicated in the MS, but barring indicates 3/2 meter.
N:NB2 The large handwriting suggests that this was the work of a beginning student.
N:NB3 MS has a bar before this note.
M:3/2   % no time signature but barred as 3/2
L:1/4
%%score {(S A) (T B)}
V:S clef=treble
V:A clef=treble
V:T clef=bass octave=-1
V:B clef=bass octave=-2
K:A
% line 1
V:S
"^NB1,2"E2 | EA c2 B2 | AF E2 E2 | E[EA] c2 A2 | B4 ||
V:A
C2 | CC E2 D2 | CD C2 C2 | CC C2 C2 | E4 ||
V:T
A2 | AA A2 G2 | AA A2 A2 | AA A2 A2 | G4 ||
V:B
A2 | AA A2 e2 | fd A2 A2 | Ax f2 f2 | e4 ||
% line 2
V:S
"^NB3"d2 | cB A2 B2 | cA F2 E2 | EA c2 B2 | A4 ||
V:A
F2 | ED c2 D2 | EE D2 B,2 | CC E2 D2 | C4 ||
V:T
A2 | AG A2 G2 | AA A2 G2 | AA A2 G2 | A4 ||
V:B
d2 | xe f2 e2 | xc d2 e2 | cf e2 e2 | A4 ||


